static/cLetter.svg

<svg fill="none" height="85" viewBox="0 0 70 85" width="70" xmlns="http://www.w3.org/2000/svg"><rect fill="#000" height="85" rx="7" width="70"/><path d="m40.8 21.48-.12-3.48c0-.32.1-.48.3-.48.08 0 .22.34.42 1.02s.3 1.76.3 3.24-.02 2.5-.06 3.06c1.6-.32 3.04-.48 4.32-.48 3.6 0 6.4.94 8.4 2.82 2.24 2 3.36 4.7 3.36 8.1v.24c0 .68-.28 1.02-.84 1.02-.32 0-.68-.12-1.08-.36-2.72-1.64-5.22-3.06-7.5-4.26-2.28-1.24-4.62-2.24-7.02-3-.64 5.56-1.72 11.4-3.24 17.52-1.84 6.92-3.78 12.52-5.82 16.8.32.04.84.06 1.56.06 4.36 0 8.78-1.12 13.26-3.36 4.48-2.28 7.86-5.2 10.14-8.76l.54-.72c.04.04.06.16.06.36s-.06.42-.18.66c-2.32 4-6.16 7.38-11.52 10.14-5.08 2.52-10.08 3.82-15 3.9-2.6 4.64-5.02 6.96-7.26 6.96-.36 0-.54-.12-.54-.36s.12-.38.36-.42l1.14-.24c1.84-.64 3.72-2.62 5.64-5.94-4.12-.12-7.38-1.26-9.78-3.42s-3.6-5.44-3.6-9.84c0-4.44 1.72-9.1 5.16-13.98 3.44-4.92 7.44-8.54 12-10.86-1.08-.12-2.18-.18-3.3-.18-1.08 0-2.6.24-4.56.72-1.92.44-3.66 1.12-5.22 2.04-2.32 1.36-3.48 2.88-3.48 4.56 0 .2.02.36.06.48v.48c0 .52-.18.78-.54.78-.48 0-.84-.32-1.08-.96-.32-.72-.48-1.32-.48-1.8 0-2.36 2.12-4.18 6.36-5.46 3.12-.92 6.22-1.38 9.3-1.38.84 0 2.1.1 3.78.3 2.24-.96 4.14-1.62 5.7-1.98.04-.84.06-2.02.06-3.54zm-20.46 29.52c0 3.6 1 6.42 3 8.46 2 2.2 4.76 3.44 8.28 3.72 2.2-4.48 4.08-9.88 5.64-16.2s2.64-12.42 3.24-18.3c-1.56-.44-3.28-.82-5.16-1.14-4.36 2.08-7.92 5.3-10.68 9.66-2.88 4.44-4.32 9.04-4.32 13.8zm35.04-17.76c.28 0 .42-.2.42-.6s-.12-.88-.36-1.44c-1.04-1.8-2.68-3.14-4.92-4.02s-4.52-1.32-6.84-1.32c-.48 0-1.2.04-2.16.12l-.18 2.04c4.64.96 9.06 2.6 13.26 4.92.4.2.66.3.78.3zm-14.76-7.2c-1.68.28-3.12.66-4.32 1.14 2.76.44 4.18.66 4.26.66.04-.4.06-1 .06-1.8z" fill="#fff"/></svg>

<svg width="70" height="85" viewBox="0 0 70 85" fill="none" xmlns="http://www.w3.org/2000/svg">
<rect width="70" height="85" rx="7" fill="black"/>
<path d="M40.8 21.48L40.68 18C40.68 17.68 40.78 17.52 40.98 17.52C41.06 17.52 41.2 17.86 41.4 18.54C41.6 19.22 41.7 20.3 41.7 21.78C41.7 23.26 41.68 24.28 41.64 24.84C43.24 24.52 44.68 24.36 45.96 24.36C49.56 24.36 52.36 25.3 54.36 27.18C56.6 29.18 57.72 31.88 57.72 35.28V35.52C57.72 36.2 57.44 36.54 56.88 36.54C56.56 36.54 56.2 36.42 55.8 36.18C53.08 34.54 50.58 33.12 48.3 31.92C46.02 30.68 43.68 29.68 41.28 28.92C40.64 34.48 39.56 40.32 38.04 46.44C36.2 53.36 34.26 58.96 32.22 63.24C32.54 63.28 33.06 63.3 33.78 63.3C38.14 63.3 42.56 62.18 47.04 59.94C51.52 57.66 54.9 54.74 57.18 51.18L57.72 50.46C57.76 50.5 57.78 50.62 57.78 50.82C57.78 51.02 57.72 51.24 57.6 51.48C55.28 55.48 51.44 58.86 46.08 61.62C41 64.14 36 65.44 31.08 65.52C28.48 70.16 26.06 72.48 23.82 72.48C23.46 72.48 23.28 72.36 23.28 72.12C23.28 71.88 23.4 71.74 23.64 71.7L24.78 71.46C26.62 70.82 28.5 68.84 30.42 65.52C26.3 65.4 23.04 64.26 20.64 62.1C18.24 59.94 17.04 56.66 17.04 52.26C17.04 47.82 18.76 43.16 22.2 38.28C25.64 33.36 29.64 29.74 34.2 27.42C33.12 27.3 32.02 27.24 30.9 27.24C29.82 27.24 28.3 27.48 26.34 27.96C24.42 28.4 22.68 29.08 21.12 30C18.8 31.36 17.64 32.88 17.64 34.56C17.64 34.76 17.66 34.92 17.7 35.04V35.52C17.7 36.04 17.52 36.3 17.16 36.3C16.68 36.3 16.32 35.98 16.08 35.34C15.76 34.62 15.6 34.02 15.6 33.54C15.6 31.18 17.72 29.36 21.96 28.08C25.08 27.16 28.18 26.7 31.26 26.7C32.1 26.7 33.36 26.8 35.04 27C37.28 26.04 39.18 25.38 40.74 25.02C40.78 24.18 40.8 23 40.8 21.48ZM20.34 51C20.34 54.6 21.34 57.42 23.34 59.46C25.34 61.66 28.1 62.9 31.62 63.18C33.82 58.7 35.7 53.3 37.26 46.98C38.82 40.66 39.9 34.56 40.5 28.68C38.94 28.24 37.22 27.86 35.34 27.54C30.98 29.62 27.42 32.84 24.66 37.2C21.78 41.64 20.34 46.24 20.34 51ZM55.38 33.24C55.66 33.24 55.8 33.04 55.8 32.64C55.8 32.24 55.68 31.76 55.44 31.2C54.4 29.4 52.76 28.06 50.52 27.18C48.28 26.3 46 25.86 43.68 25.86C43.2 25.86 42.48 25.9 41.52 25.98L41.34 28.02C45.98 28.98 50.4 30.62 54.6 32.94C55 33.14 55.26 33.24 55.38 33.24ZM40.62 26.04C38.94 26.32 37.5 26.7 36.3 27.18C39.06 27.62 40.48 27.84 40.56 27.84C40.6 27.44 40.62 26.84 40.62 26.04Z" fill="white"/>
</svg>
